svgs/duotone/user-robot.svg

<svg xmlns="http://www.w3.org/2000/svg" viewBox="0 0 448 512"><defs><style>.fa-secondary{opacity:.4}</style></defs><path d="M176,240H144v32h32Zm0,208a15.99954,15.99954,0,0,0-16,16v48h32V464A15.99954,15.99954,0,0,0,176,448ZM0,146v92a17.97968,17.97968,0,0,0,18,18H48V128H18A17.97843,17.97843,0,0,0,0,146Zm430-18H400V256h30a17.97718,17.97718,0,0,0,18-18V146A17.97594,17.97594,0,0,0,430,128ZM208,272h32V240H208Zm64,0h32V240H272Zm0,176a16,16,0,1,0,16,16A15.99954,15.99954,0,0,0,272,448ZM224,0a15.99954,15.99954,0,0,0-16,16V64h32V16A15.99954,15.99954,0,0,0,224,0Z" class="fa-secondary"/><path d="M116,320H332a36.0356,36.0356,0,0,0,36-36V109a44.98286,44.98286,0,0,0-45-45H125a44.98536,44.98536,0,0,0-45,45V284A36.03811,36.03811,0,0,0,116,320Zm188-48H272V240h32ZM288,128a32,32,0,1,1-32,32A31.99658,31.99658,0,0,1,288,128ZM208,240h32v32H208Zm-32,32H144V240h32ZM160,128a32,32,0,1,1-32,32A31.99658,31.99658,0,0,1,160,128ZM352,352H96A95.99975,95.99975,0,0,0,0,448v32a32.00158,32.00158,0,0,0,32,32h96V448a32.00033,32.00033,0,0,1,32-32H288a32.00033,32.00033,0,0,1,32,32v64h96a32.00158,32.00158,0,0,0,32-32V448A95.99975,95.99975,0,0,0,352,352Z" class="fa-primary"/></svg>

<svg xmlns="http://www.w3.org/2000/svg" viewBox="0 0 448 512"><!--! Font Awesome Pro 6.0.0-alpha3 by @fontawesome - https://fontawesome.com License - https://fontawesome.com/license (Commercial License) --><defs><style>.fa-secondary{opacity:.4}</style></defs><path class="fa-primary" d="M352 352H96c-53 0-96 43-96 96v32c0 17.62 14.38 32 32 32h96v-64c0-17.62 14.38-32 32-32h128c17.62 0 32 14.38 32 32v64h96c17.62 0 32-14.38 32-32v-32C448 395 405 352 352 352zM116 320h216c19.88 0 36-16.12 36-36V109C368 84.13 347.9 64 323 64h-198C100.1 64 80 84.13 80 109V284C80 303.9 96.13 320 116 320zM304 272h-32v-32h32V272zM288 128c17.62 0 32 14.38 32 32s-14.38 32-32 32s-32-14.38-32-32S270.4 128 288 128zM208 240h32v32h-32V240zM176 272h-32v-32h32V272zM160 128c17.62 0 32 14.38 32 32S177.6 192 160 192S128 177.6 128 160S142.4 128 160 128z"/><path class="fa-secondary" d="M208 272h32v-32h-32V272zM176 448C167.1 448 160 455.1 160 464V512h32v-48C192 455.1 184.9 448 176 448zM176 240h-32v32h32V240zM37.25 133.3C33.88 136.6 32 141.3 32 146v92c0 4.75 1.875 9.375 5.25 12.75S45.25 256 49.1 256H80V128H49.1C45.25 128 40.63 129.9 37.25 133.3zM410.8 133.3C407.4 129.9 402.8 128 397.1 128H368v128h29.1c4.75 0 9.375-1.875 12.75-5.25S416 242.8 416 238v-92C416 141.3 414.1 136.6 410.8 133.3zM272 448c-8.875 0-16 7.125-16 16s7.125 16 16 16s16-7.125 16-16S280.9 448 272 448zM272 272h32v-32h-32V272zM224 0C215.2 0 208 7.162 208 16V64h32V16C240 7.162 232.8 0 224 0z"/></svg>
